X:1
T:Title
%%score { 1 | 2 }
L:1/8
M:4/4
K:G
V:1 treble nm="Grand Piano"
V:2 bass 
V:1
 z4 z2[Q:1/4=100] [G,B,D]2 | [B,DG]2 [B,DG]2 [DFA]2 [DFA]2 | [DGB]6 [B,G]2 | %3
 [CGc]2 [DAc]2 [DGB]2 [DGB]2 | [DFA]6 [B,D]2 | [B,DG]2 [B,DG]2 [B,DG]2 [DFA]2 | %6
 [DGB]2 [EGc]2 [DGB]2 [Ge]2 | [Gd]3 [Ec] [DB]2 [CA]2 |[M:3/4] [G,B,G]6 |[M:1/4] [B,DG]2 | %10
[M:4/4] [DFA]3 [DFA] [^CGB]2 [CGA]2 | [DFA]6 [DFA]2 | [DGB]3 [DAB] [EGB]2 [EG^c]2 | [DFd]6 [Fd]2 | %14
 [G^c]2 [DA=c]2 [DGB]2 [CFA]2 | [B,EG]2 [A,^DF]2 [G,E]2 [Ec]2 | [DB]3 [A,EA] [B,DG]2 [CDF]2 | %17
[M:3/4] [G,B,DG]6 |] %18
V:2
 z4 z2 G,,2 | G,2 G,2 D,2 D,2 | G,6 G,2 | E,2 F,2 G,2 G,2 | D,6 G,2 | G,2 G,2 G,2 D,2 | %6
 G,2 G,2 G,2 [C,G,]2 | [B,,G,]3 [C,G,] [D,G,]2 [D,F,]2 |[M:3/4] G,,6 |[M:1/4] G,2 | %10
[M:4/4] D,3 D, A,,2 A,,2 | D,6 D,2 | G,3 F, E,2 A,2 | D,6 [D,A,]2 | [E,A,]2 F,2 G,2 D,2 | %15
 E,2 B,,2 C,2 [A,,A,]2 | [B,,G,]3 C, D,2 D,2 |[M:3/4] G,,6 |] %18

